images/favicon.ico.svg

<svg xmlns="http://www.w3.org/2000/svg" version="1.1" xmlns:xlink="http://www.w3.org/1999/xlink" xmlns:svgjs="http://svgjs.dev/svgjs" width="73" height="58"><svg width="73" height="58" viewBox="0 0 73 58" fill="none" xmlns="http://www.w3.org/2000/svg">
<path d="M29.84 57.0001V47.7201L29.6 46.2001V30.6801C29.6 27.1068 28.5867 24.3601 26.56 22.4401C24.5867 20.5201 21.6267 19.5601 17.68 19.5601C14.96 19.5601 12.3733 20.0134 9.92 20.9201C7.46667 21.8268 5.38667 23.0268 3.68 24.5201L1.12 20.2801C3.25333 18.4668 5.81333 17.0801 8.8 16.1201C11.7867 15.1068 14.9333 14.6001 18.24 14.6001C23.68 14.6001 27.8667 15.9601 30.8 18.6801C33.7867 21.3468 35.28 25.4268 35.28 30.9201V57.0001H29.84ZM15.36 57.4001C12.2133 57.4001 9.46667 56.8934 7.12 55.8801C4.82667 54.8134 3.06667 53.3734 1.84 51.5601C0.613334 49.6934 0 47.5601 0 45.1601C0 42.9734 0.506667 41.0001 1.52 39.2401C2.58667 37.4268 4.29333 35.9868 6.64 34.9201C9.04 33.8001 12.24 33.2401 16.24 33.2401H30.72V37.4801H16.4C12.3467 37.4801 9.52 38.2001 7.92 39.6401C6.37333 41.0801 5.6 42.8668 5.6 45.0001C5.6 47.4001 6.53333 49.3201 8.4 50.7601C10.2667 52.2001 12.88 52.9201 16.24 52.9201C19.44 52.9201 22.1867 52.2001 24.48 50.7601C26.8267 49.2668 28.5333 47.1334 29.6 44.3601L30.88 48.2801C29.8133 51.0534 27.9467 53.2668 25.28 54.9201C22.6667 56.5734 19.36 57.4001 15.36 57.4001Z" fill="white"></path>
<path d="M53.3593 57.4001C48.986 57.4001 45.146 56.4934 41.8393 54.6801C38.5326 52.8134 35.946 50.2801 34.0793 47.0801C32.2126 43.8268 31.2793 40.1201 31.2793 35.9601C31.2793 31.8001 32.1593 28.1201 33.9193 24.9201C35.7326 21.7201 38.186 19.2134 41.2793 17.4001C44.426 15.5334 47.946 14.6001 51.8393 14.6001C55.786 14.6001 59.2793 15.5068 62.3193 17.3201C65.4126 19.0801 67.8393 21.5868 69.5993 24.8401C71.3593 28.0401 72.2393 31.7468 72.2393 35.9601C72.2393 36.2268 72.2126 36.5201 72.1593 36.8401C72.1593 37.1068 72.1593 37.4001 72.1593 37.7201H35.5993V33.4801H69.1193L66.8793 35.1601C66.8793 32.1201 66.2126 29.4268 64.8793 27.0801C63.5993 24.6801 61.8393 22.8134 59.5993 21.4801C57.3593 20.1468 54.7726 19.4801 51.8393 19.4801C48.9593 19.4801 46.3726 20.1468 44.0793 21.4801C41.786 22.8134 39.9993 24.6801 38.7193 27.0801C37.4393 29.4801 36.7993 32.2268 36.7993 35.3201V36.2001C36.7993 39.4001 37.4926 42.2268 38.8793 44.6801C40.3193 47.0801 42.2926 48.9734 44.7993 50.3601C47.3593 51.6934 50.266 52.3601 53.5193 52.3601C56.0793 52.3601 58.4526 51.9068 60.6393 51.0001C62.8793 50.0934 64.7993 48.7068 66.3993 46.8401L69.5993 50.5201C67.7326 52.7601 65.386 54.4668 62.5593 55.6401C59.786 56.8134 56.7193 57.4001 53.3593 57.4001Z" fill="white"></path>
<path fill-rule="evenodd" clip-rule="evenodd" d="M67.5996 6H39.5996V0H67.5996V6Z" fill="white"></path>
</svg><style>@media (prefers-color-scheme: light) { :root { filter: none; } }
@media (prefers-color-scheme: dark) { :root { filter: none; } }
</style></svg>

<svg xmlns="http://www.w3.org/2000/svg" width="73" height="58"><svg xmlns="http://www.w3.org/2000/svg" width="73" height="58" fill="none" viewBox="0 0 73 58"><path fill="#fff" d="M29.8 57v-9.3l-.2-1.5V30.7c0-3.6-1-6.3-3-8.3-2-1.9-5-2.8-9-2.8a22.2 22.2 0 0 0-14 5l-2.5-4.3C3.3 18.5 5.8 17 8.8 16s6.1-1.5 9.4-1.5c5.5 0 9.7 1.4 12.6 4 3 2.7 4.5 6.8 4.5 12.3V57h-5.5Zm-14.4.4c-3.2 0-6-.5-8.3-1.5-2.3-1-4-2.5-5.3-4.3-1.2-2-1.8-4-1.8-6.4 0-2.2.5-4.2 1.5-6A11 11 0 0 1 6.6 35a23 23 0 0 1 9.6-1.7h14.5v4.3H16.4c-4 0-6.9.7-8.5 2.1A7 7 0 0 0 5.6 45a7 7 0 0 0 2.8 5.8c1.9 1.4 4.5 2.1 7.8 2.1 3.2 0 6-.7 8.3-2.1 2.3-1.5 4-3.7 5.1-6.4l1.3 3.9c-1 2.8-3 5-5.6 6.6-2.6 1.7-6 2.5-10 2.5Z"/><path fill="#fff" d="M53.4 57.4c-4.4 0-8.3-1-11.6-2.7A20.4 20.4 0 0 1 31.3 36c0-4.2.9-7.9 2.6-11a20 20 0 0 1 18-10.4c3.9 0 7.4 1 10.4 2.7 3.1 1.8 5.5 4.3 7.3 7.5a22.7 22.7 0 0 1 2.6 12v1H35.6v-4.3h33.5L67 35.2a16 16 0 0 0-7.3-13.7c-2.2-1.4-4.8-2-7.8-2-2.8 0-5.4.6-7.7 2-2.3 1.3-4.1 3.2-5.4 5.6-1.3 2.4-1.9 5.1-1.9 8.2v.9c0 3.2.7 6 2 8.5 1.5 2.4 3.5 4.3 6 5.7 2.6 1.3 5.5 2 8.7 2 2.6 0 5-.5 7.1-1.4 2.3-1 4.2-2.3 5.8-4.2l3.2 3.7a18 18 0 0 1-7 5.1 23.4 23.4 0 0 1-9.2 1.8Z"/><path fill="#fff" fill-rule="evenodd" d="M67.6 6h-28V0h28v6Z" clip-rule="evenodd"/></svg><style>@media (prefers-color-scheme:light){:root{filter:none}}@media (prefers-color-scheme:dark){:root{filter:none}}</style></svg>
